svgs/mtmanager.svg

<svg xmlns="http://www.w3.org/2000/svg" viewBox="0 0 192 192"><path d="M80 32H32c-8.8 0-15.92 7.2-15.92 16L16 144c0 8.8 7.2 16 16 16h128c8.8 0 16-7.2 16-16V64c0-8.8-7.2-16-16-16H96ZM48 80h8.914v.212l.293-.212L67.81 94.598 78.412 80l.293.212V80h8.914v56.953a4.457 4.457 0 0 1-8.914 0V94.766l-6.956 9.577a3.962 3.962 0 1 1-7.88-.001l-6.955-9.576v42.187a4.457 4.457 0 0 1-8.914 0Zm68.838 14.857a4.456 4.456 0 0 1-4.457-4.457V80H152v10.4a4.456 4.456 0 1 1-8.914 0v-2.476h-6.934v53.486h-8.914V87.924h-5.943V90.4a4.456 4.456 0 0 1-4.457 4.457Z" fill-rule="evenodd"/></svg>

<svg
    xmlns="http://www.w3.org/2000/svg"
    viewBox="0 0 192 192"
    id="vector">
    <path
        id="path"
        d="M 80 32 L 32 32 C 23.2 32 16.08 39.2 16.08 48 L 16 144 C 16 152.8 23.2 160 32 160 L 160 160 C 168.8 160 176 152.8 176 144 L 176 64 C 176 55.2 168.8 48 160 48 L 96 48 Z M 48 80 L 56.914 80 L 56.914 80.212 L 57.207 80 L 67.81 94.598 L 78.412 80 L 78.705 80.212 L 78.705 80 L 87.619 80 L 87.619 136.953 C 87.619 139.414 85.624 141.41 83.162 141.41 C 80.701 141.41 78.705 139.414 78.705 136.953 L 78.705 94.766 L 71.749 104.343 C 71.764 104.481 71.771 104.621 71.771 104.762 C 71.771 106.95 69.997 108.724 67.809 108.724 C 65.621 108.724 63.847 106.95 63.847 104.762 C 63.847 104.62 63.855 104.48 63.869 104.342 L 56.914 94.766 L 56.914 136.953 C 56.914 139.414 54.919 141.41 52.457 141.41 C 49.996 141.41 48 139.414 48 136.953 Z M 116.838 94.857 C 114.376 94.857 112.381 92.862 112.381 90.4 L 112.381 80 L 152 80 L 152 90.4 C 152 92.862 150.005 94.857 147.543 94.857 C 145.081 94.857 143.086 92.862 143.086 90.4 L 143.086 87.924 L 136.152 87.924 L 136.152 141.41 L 127.238 141.41 L 127.238 87.924 L 121.295 87.924 L 121.295 90.4 C 121.295 92.862 119.3 94.857 116.838 94.857 Z"
        fill="#000000"
        stroke-width="12"
        fill-rule="evenodd"/>
</svg>
